resources/icons/16px/vertical-bar-chart-asc.svg

<svg xmlns="http://www.w3.org/2000/svg" viewBox="0 0 16 16">
  <path d="M6 7c-.55 0-1 .45-1 1v7c0 .55.45 1 1 1s1-.45 1-1V8c0-.55-.45-1-1-1M2 9c-.55 0-1 .45-1 1v5c0 .55.45 1 1 1s1-.45 1-1v-5c0-.55-.45-1-1-1m8-5c-.55 0-1 .45-1 1v10c0 .55.45 1 1 1s1-.45 1-1V5c0-.55-.45-1-1-1m4-4c-.55 0-1 .45-1 1v14c0 .55.45 1 1 1s1-.45 1-1V1c0-.55-.45-1-1-1"/>
</svg>

<?xml version="1.0" encoding="utf-8"?>
<!-- Generator: Adobe Illustrator 18.0.0, SVG Export Plug-In . SVG Version: 6.00 Build 0)  -->
<svg version="1.1" id="Shape_1_1_" xmlns="http://www.w3.org/2000/svg" xmlns:xlink="http://www.w3.org/1999/xlink" x="0px" y="0px"
	 viewBox="0 0 16 16" enable-background="new 0 0 16 16" xml:space="preserve">
<g id="Shape_1">
	<g>
		<path fill-rule="evenodd" clip-rule="evenodd" d="M6,7C5.45,7,5,7.45,5,8v7c0,0.55,0.45,1,1,1s1-0.45,1-1V8C7,7.45,6.55,7,6,7z
			 M2,9c-0.55,0-1,0.45-1,1v5c0,0.55,0.45,1,1,1s1-0.45,1-1v-5C3,9.45,2.55,9,2,9z M10,4C9.45,4,9,4.45,9,5v10c0,0.55,0.45,1,1,1
			s1-0.45,1-1V5C11,4.45,10.55,4,10,4z M14,0c-0.55,0-1,0.45-1,1v14c0,0.55,0.45,1,1,1s1-0.45,1-1V1C15,0.45,14.55,0,14,0z"/>
	</g>
</g>
</svg>
